X: 20792
M: 6/8
L: 1/8
K: C
V: 1 name="5"
c2c Gce | g2g g2e | gfd fec | dfe d2G |\
c2c Gce | g2g g2e | d2a g2f | e2c c2 H|]
d2d d2e | d2d d2g | ^fed def | gab d2B/c/ |\
d2d d2e | d2d d2g | ^fed def | a3 "^D.C."g2 |]
E |\


